!!!!SEGMENT: pl-wtm--1124-3622--001-005_rozycki-ludomir--5-preludes-op-2-no-5.krn
!!!cenid: 19xx:132
!!!COM: Różycki, Ludomir
!!!COM-rismID: pe50045573
!!!CDT: 1883-1953
!!!CNT: Polish
!!!GTL: 5 Préludes op. 2
!!!OTL: No. 5.
!!!OMV: 005
!!!PDT: 1924
!!!AGN: Secular; Prelude
!!!YEC: Copyright 2022 Narodowy Instytut Fryderyka Chopina (https://polishscores.org)
!!!YEM: License CC-BY-4.0 (https://creativecommons.org/licenses/by/4.0)
!!!SMS-siglum: PL-Wtm
!!!SMS-shelfmark: 1124 3622
!!!SMS-variant:
!!!SMS-altvar:
!!!SMS-shelfwork: 001-005 G
!!!NIFC-rismSourceID: 1001214520
!!!NIFC-rismChildID: 1001214520
!!!NIFC-islandoraID: pl-wtm:72703
!!!URL-pdf-islandora: https://repozytorium.nifc.pl/islandora/object/pl-wtm%3A72703/datastream/PDF/view
!!!URL-scan: https://polish.musicsources.pl/pl/lokalizacje/galeria/druki-muzyczne/18454/7 @EN{Scan on Polish Music Sources Website} @PL{Skany w portalu Dziedzictwo Muzyki Polskiej w otwartym dostępie}
!!!IIIF:
!!!ONB-nifc:
!!!AIN: 1 piano
!!!key: a
**kern	**fing	**kern	**fing	**dynam
*part1	*	*part1	*	*part1
*staff2	*	*staff1	*	*staff1/2
*group1	*	*group1	*	*
*ICklav	*	*ICklav	*	*
*Ipiano	*	*Ipiano	*	*
*I"Piano.	*	*I"Piano.	*	*
*	*	*I'	*	*
*clefF4	*	*clefG2	*	*
*k[]	*	*k[]	*	*
*a:	*	*a:	*	*
*M9/8	*	*M9/8	*	*
=1	=1	=1	=1	=1
*ped	*below	*	*	*
!!LO:TX:a:B:t=Allegro assai.
!!LO:TX:a:B:t=M.M. [quarter.] = 108
4.A: 4.D: 4.GG:\	.	4.dd: 4.a: 4.f: 4.d:/	.	f
.	.	16qqdd/LL	2	p
.	.	16qqee/JJ	4	.
4.r	.	(8dd\L	3	.
.	.	8cc\	.	.
.	.	8b\J	.	.
4.r	.	8a\L	2	.
.	.	8b\	.	.
.	.	8cc\J	.	.
=2	=2	=2	=2	=2
*	*	*^	*	*
*	*	*Xtuplet	*	*	*
4.r	.	16%3dd\L	4.ryy	.	.
.	.	.	.	.	<
.	.	16%3g\J	.	.	.
.	.	.	.	.	[
*ped	*	*	*	*	*
(4.A 4.D\	1 5	4.cc/	2.f 2.c\	.	.
16qqF/LL	3	.	.	.	>
16qqG/JJ	2	.	.	.	.
*Xped	*	*	*	*	*
8F\L	1	4.a/)	.	4	.
8E\	.	.	.	.	]
8D\J)	.	.	.	.	.
*	*	*v	*v	*	*
=3	=3	=3	=3	=3
*ped	*	*	*	*
4.A: 4.D: 4.GG:\	.	4.dd: 4.a: 4.f: 4.d:/	.	] f
.	.	16qqdd/LL	.	p
.	.	16qqee/JJ	.	.
4.r	.	(8dd\L	.	.
.	.	8cc\	.	.
.	.	8b\J	.	.
4.r	.	8a\L	.	.
.	.	8b\	.	.
.	.	8cc\J	.	.
!!LO:LB:g=original
=4	=4	=4	=4	=4
*	*	*^	*	*
*	*	*tuplet	*	*	*
4.r	.	16%3dd/L	4.ryy	.	.
.	.	.	.	.	<
.	.	16%3g/J	.	.	.
.	.	.	.	.	[
*ped	*	*	*	*	*
(4.A 4.D\	.	4.cc/	2.f 2.c\	.	.
16qqF/LL	.	.	.	.	>
16qqG/JJ	.	.	.	.	.
*Xped	*	*	*	*	*
8F\L	1	4.a/)	.	.	.
8E\	.	.	.	.	]
8D\J)	.	.	.	.	.
=5	=5	=5	=5	=5	=5
*^	*	*	*	*	*
!LO:TX:t=P:problem: kreska od 2.G/ do 4.f#X 4.c\	!	!	!	!	!	!LO:HP:a
2.G/	4.F\	1 2	(8d/L	4.B\	1 2	<
.	.	.	8e/	.	.	.
.	.	.	8f/J	.	.	.
.	4.E\	3	16%3g/L	4.c\	3	[
.	.	.	16%3cc/J	.	.	.
*	*	*	*Xtuplet	*	*	*
!	!	!	!	!	!	!LO:HP:a
4.ryy	4.D#X\	4	16%3a/L	4.f#X 4.c\	4	>
.	.	.	16%3f#/J)	.	.	]
*v	*v	*	*	*	*	*
*	*	*v	*v	*	*
=6	=6	=6	=6	=6
!	!	!	!	!LO:DY:t=più %s
(8Dn\L	5	(4.aa 4.ffn 4.cc\	1 4 5	f
8E\	.	.	.	.
8F\J	.	.	.	.
*Xtuplet	*	*tuplet	*	*
16%3G\L	.	16%3ggL 16%3dd#X 16%3b\	1 3 5	.
16%3c\J	.	16%3eeJ 16%3cc 16%3g\	4	.
*	*	*Xtuplet	*	*
16%3A\L	.	16%3ddnL 16%3cc 16%3f#X\	3	.
16%3Fn\J)	4	16%3dd#XJ 16%3b 16%3g#X\)	1 2 4	.
!!LO:LB:g=original
=7	=7	=7	=7	=7
*ped	*	*	*	*
*tuplet	*	*	*	*
16%3b>L 16%3e> 16%3c> 16%3G>\	.	(>8eeL 8cc/	1 3	.
.	.	8ff 8dd/	.	.
16%3a>\J	2	.	.	.
.	.	8ggJ 8ee/	.	<
*ped	*	*	*	*
4.g> 4.f>\	3 4	16%3aaL 16%3dd#X 16%3b/	1 2 5	.
.	.	16%3aaa/J	5	[
*ped	*	*	*	*
4.ee> 4.cc> 4.g> 4.e>\	.	16%3ggg:L 16%3ccc: 16%3gg:/	.	.
.	.	16%3eee/J)	.	.
=8	=8	=8	=8	=8
*ped	*	*	*	*
2.cc> 2.f#X>\	2 5	4.ddd: 4.aa: 4.dd:/	.	.
.	.	16qqddd/LL	.	.
.	.	16qqeee/JJ	.	.
.	.	(8ddd\L	3	.
.	.	8ccc\	.	.
.	.	8aa\J	1	.
16qqdd>\LL	3	.	.	.
16qqee>\JJ	2	.	.	.
8dd>\L	1	4.ff#X/)	2	.
8cc>\	2	.	.	.
*Xped	*	*	*	*
8a>\J	4	.	.	.
=9	=9	=9	=9	=9
*^	*	*^	*	*
*	*Xtuplet	*	*tuplet	*	*	*
(4.e/	16%3A\L	1 3	16%3gg/L	4.cc 4.g\	.	.
.	16%3G\J	.	16%3ee/J	.	4	.
*ped	*	*	*	*	*	*
!	!	!	!	!	!	!LO:HP:a:t=diminuendo
4.B/)	4.F\	2 5	[4.dd#X [4.a [4.d#X/	2.ryy	.	>
4GGG/	4.ryy	.	4dd#] 4a] 4d#/]	.	.	.
*Xped	*	*	*	*	*	*
8r	.	.	8r	.	.	.
*	*	*	*clefF4	*	*	*
!!LO:LB:g=original
=10	=10	=10	=10	=10	=10	=10
(4.E/	16%3AA\L	1 3	(16%3g/L	4.c 4.G\	.	.
.	16%3GG\J	.	16%3e/J	.	.	.
*ped	*	*	*	*	*	*
4.BB/)	4.FF#X\	2 5	[4.d#X [4.A [4.D#X\	2.ryy	.	.
4GGG/	4.ryy	.	4d#] 4A] 4D#\])	.	.	.
*Xped	*	*	*	*	*	*
8r	.	.	8r	.	.	.
*	*	*	*	*clefG2	*	*
=11	=11	=11	=11	=11	=11	=11
4.BB/	4.FFn\	2 5	(8dn/L	2.G\	1 2	<
.	.	.	8e/	.	.	.
.	.	.	8f/J	.	.	.
8GG/L	4.EE\	4 5	4.g/	.	.	.
8AA/	.	.	.	.	.	.
8BB/J	.	.	.	.	.	[
4.C/	4.EE-X\	1 5	4.a-X/	4.G-X\	.	.
*v	*v	*	*	*	*	*
*	*	*v	*v	*	*
=12	=12	=12	=12	=12
*ped	*	*	*	*
[2.BB [2.DD [2.GGG/	.	4.an 4.F/)	.	.
.	.	(4.aa\	3	.
.	.	.	.	>
.	.	16qqgg/LL	2	.
.	.	16qqaa/JJ	4	.
4.BB] 4.DD] 4.GGG/]	.	8gg\L	3	.
.	.	8ff\	.	.
.	.	8ee\J	.	]]
*Xped	*	*	*	*
!!LO:LB:g=original
=13	=13	=13	=13	=13
4.r	.	[>2.dd/	3	.
(4.a>\	2	.	.	.
16qqg>\LL	3	.	.	.
16qqa>\JJ	2	.	.	.
!	!	!	!	!LO:HP:a
8g>\L	1	4dd/]	.	<
8f>\	.	.	.	.
8e>\J	.	8ee/	.	.
=14	=14	=14	=14	=14
*	*	*^	*	*
4.d>\)	4	[2.ff/)	4.ryy	.	[
*ped	*	*	*	*	*
4.d:: 4.G^::\	.	.	4.dd:: 4.a:: 4.f::\	4	.
*Xped	*	*	*	*	*
4.r	.	4.ff/]	4.rg	.	.
=15	=15	=15	=15	=15	=15
!	!	!	!	!	!LO:DY:a
4.r	.	[2.ff#X/	4.rg	.	f
*ped	*	*	*	*	*
4.d:: 4.G^::\	.	.	4.dd:: 4.a:: 4.fn::\	.	.
*Xped	*	*	*	*	*
4.r	.	4.ff#/]	4.rg	.	.
*	*	*v	*v	*	*
=16||	=16||	=16||	=16||	=16||
*M3/4	*	*M3/4	*	*
*^	*^	*	*	*
*ped	*	*	*	*	*	*
!	!	!	!	!LO:TX:a:i:t=passionato	!	!
8GGL 8CC/	2ryy	.	.	(4gg\	4	.
*clefG2	*	*	*	*	*	*
(8b 8e 8c 8G/	.	.	.	.	.	.
*Xped	*	*	*	*	*	*
8a/	.	1	.	4aa\)	.	.
8g/J	.	1	.	.	.	.
*ped	*	*	*	*	*	*
8f/L	4B 4G\)	1	4 5	(12dd\L	.	.
.	.	.	.	12ee\	.	.
*Xped	*	*	*	*	*	*
8d/J	.	2	.	.	.	.
.	.	.	.	12ff\J	.	.
*clefF4	*	*	*	*	*	*
*	*	*v	*v	*	*	*
!!LO:PB:g=original
=17	=17	=17	=17	=17	=17
*ped	*	*	*	*	*
!	!	!	!LO:TX:t=P:problem:w źródle poczatek łuku od (4gg\)	!	!
8GGL 8CC/	2ryy	.	4gg\	.	.
*clefG2	*	*above	*	*	*
8b 8e 8c 8G/	.	1	.	.	.
8a/	.	2	4aa\)	.	.
*Xped	*	*	*	*	*
8g/J	.	3	.	.	.
*ped	*	*below	*Xtuplet	*	*
8f/L	4B 4G\	1 4 5	(12dd\L	1	.
.	.	.	12ee\	.	.
8d/J	.	.	.	.	.
*Xped	*	*	*	*	*
.	.	.	12ff\J	.	.
*clefF4	*	*	*	*	*
*v	*v	*	*	*	*
=18	=18	=18	=18	=18
*ped	*	*	*	*
8GGL 8CC/	.	12gg\L	1	.
.	.	12aa\	.	.
*clefG2	*	*	*	*
8b-X 8e 8c 8G/	.	.	.	.
.	.	12bb-X\J	.	.
8a/	3	12aaa\L	5	.
.	.	12ggg\	.	.
8g/J	4	.	.	.
.	.	12eee\J	.	.
8cc\L	2	8ccc\L	.	.
8ee\J	.	8bb-\J	.	.
*Xped	*	*	*	*
*clefF4	*	*	*	*
=19	=19	=19	=19	=19
*ped	*	*	*	*
(8CL 8FF\	.	4cccc: 4aa:\)	.	.
8F\	1	.	.	.
8A\	4	4r	.	.
8c\	2	.	.	.
8f\	1	4r	.	.
8a\J)	2	.	.	.
*Xped	*	*	*	*
!!LO:LB:g=original
=20	=20	=20	=20	=20
*ped	*	*8va	*	*
(8CL 8FF\	.	8aaaL 8bbn'\	.	p
8F\	.	8gggJ 8bb-X'\	.	.
8A\	.	4fff 4aa'\	.	.
8c\	.	.	.	.
8f\	.	8ff'\L	.	.
*Xped	*	*	*	*
8a\J)	.	8cccc'\J	.	.
=21	=21	=21	=21	=21
*ped	*	*	*	*
(8CL 8FF\	.	8aaaL 8bbn'\	.	.
8F\	.	8gggJ 8bb-X'\	.	.
8A\	.	4fff 4aa'\	.	.
8c\	.	.	.	.
8f\	.	8ff'\L	.	.
*Xped	*	*	*	*
8a\J)	.	8cccc'\J	.	.
=22	=22	=22	=22	=22
*ped	*	*	*	*
(8CL 8FF\	.	4eeee: 4aaa-X: 4ccc:\	.	f
8F\	.	.	.	.
*	*	*X8va	*	*
8A-X\	4	4eee: 4aa-X: 4cc:\	.	.
8c\	2	.	.	.
8f\	1	(12bb\L	.	<
.	.	12ccc\	.	.
*Xped	*	*	*	*
8a-X\J)	2	.	.	.
.	.	12ddd\J	.	[
=23	=23	=23	=23	=23
*ped	*	*	*	*
(8CL 8FF#X\	.	4eee: 4aan: 4cc:\)	.	.
8E\	2	.	.	.
8An\	1	4ee: 4a: 4c:/	.	.
8c\	4	.	.	.
8e\	.	(12b\L	.	<
.	.	12cc\	.	.
8a\J)	.	.	.	.
*Xped	*	*	*	*
.	.	12dd\J	.	[
!!LO:LB:g=original
=24	=24	=24	=24	=24
*ped	*	*	*	*
!	!	!LO:TX:t=P:problem:brak zakończenia łuku	!	!
(8CL 8FFnX\	2 5	4eee: 4aa-X: 4ee: 4cc:\)	.	.
8F\	1	.	.	.
8A-X\	4	4r	.	.
8c\	2	.	.	.
8f\	1	12bb\L	.	.
.	.	12ccc\	.	.
8a-X\J)	.	.	.	.
.	.	12ddd\J	.	.
=25	=25	=25	=25	=25
*ped	*	*	*	*
(8CL 8FF#X\	3 5	4eee: 4aan: 4cc:\	.	.
8E\	.	.	.	.
8An\	1	4ee: 4a: 4c:/	.	.
8c\	4	.	.	.
8e\	.	(12b\L	.	.
.	.	12cc\	.	.
8a\J)	.	.	.	.
.	.	12dd\J	.	.
=26	=26	=26	=26	=26
*ped	*	*	*	*
!	!	!LO:TX:a:i:t=scherzando	!	!
8bL 8e 8G\	.	12eeL 12cc\	1 3	p
.	.	12ff 12dd\	.	.
8a\	2	.	.	.
.	.	12ggJ 12ee\)	.	.
*ped	*	*	*	*
8gJ 8f\	3 4	8aaL 8dd#X 8b\	.	.
!	!	!LO:TX:b:i:t=stacc.	!	!
8r	.	8aaa\	.	.
*ped	*	*	*	*
*clefG2	*	*	*	*
8ee: 8cc: 8g: 8e:/	.	8ggg: 8ccc: 8gg:\	.	.
8r	.	8eee\J	4	.
=27	=27	=27	=27	=27
*ped	*	*	*	*
8cc: 8f#X:/	.	8ddd: 8aa: 8dd:\	.	.
*8va	*above	*8va	*	*
!LO:TX:b:i:t=m.g.	!	!	!	!
8aaa>\	3	8ryy	.	.
*Xped	*	*	*	*
!	!	!LO:TX:a:i:t=m.d.	!	!
*X8va	*	*	*	*
8ryy	.	8dddd/	3	.
*	*	*X8va	*	*
8ryy	.	8raa	.	.
*clefF4	*	*	*	*
!LO:TX:b:i:t=sec.	!	!	!	!
8d: 8G':\	.	8dd: 8a: 8fn':/	.	f
8r	.	8r	.	.
!!LO:LB:g=original
=28	=28	=28;	=28	=28
8r	.	8r	.	.
*	*below	*	*	*
!	!	!LO:TX:a:i:t=scherzando	!	!
(<8b>\L	1	(>8eeL 8cc/	1 3	.
8a>\	.	8ff 8dd/	.	.
[>8g>\J	.	8ggJ 8ee/	.	.
*	*	*ped	*	*
4g>] 4f>\)	4	8aaL 8dd#X 8b/)	.	.
.	.	8aaa/J	.	.
=29	=29	=29	=29	=29
*	*	*ped	*	*
8ee>: 8cc>: 8g>: 8e>:\	.	8ggg:L 8ccc: 8gg:/	.	.
8rb>	.	8eee/J	.	.
*	*	*ped	*	*
!LO:TX:b:i:t=m.g.	!	!	!	!
8cc>: 8f#X>:\	.	8ddd: 8aa: 8dd:/	.	.
*8va	*above	*8va	*	*
8aaa>\	3	8ryy	.	.
*X8va	*	*Xped	*	*
!	!	!LO:TX:a:i:t=m.d.	!	!
4ryy	.	8dddd/	3	.
*	*	*X8va	*	*
.	.	8rgg	.	.
=30	=30	=30	=30	=30
*^	*	*	*	*
*ped	*	*	*	*	*
.	(8qGG/	.	.	.	.
*	*	*above	*	*	*
!LO:TX:t=P:problem:łuczek nad palcowaniem	!	!	!LO:TX:a:i:t=passionato	!	!
(8G/L	[4G\)	15	8r	.	.
8A/J	.	4	(4aa 4ffn\	3 5	>
4B/	2G\_	3	.	.	.
*Xped	*	*	*	*	*
.	.	.	4gg 4ee\	.	.
4c/	.	.	.	.	]
.	.	.	8ee 8cc\)	.	.
=31	=31	=31	=31	=31	=31
*ped	*	*	*	*	*
4d/	(2.G\]	.	8r	.	.
.	.	.	(4ff 4a\	2 5	.
4e/	.	2	.	.	>
*Xped	*	*	*	*	*
.	.	.	4ee 4g\	1 5	.
4f/	.	.	.	.	.
.	.	.	8cc 8a-X\)	2 3	]
*v	*v	*	*	*	*
!!LO:LB:g=original
=32	=32	=32	=32	=32
*ped	*below	*	*	*
2.f#X 2.A-X\))	2 5	2.cc 2.d#X/	2 5	.
*Xped	*	*	*	*
=33	=33	=33	=33	=33
*^	*	*	*	*
*ped	*	*	*	*	*
8rB	2GG 2GGG\	.	(4g/	3	.
8f:L 8c: 8G:/	.	1 3 5	.	.	.
8e/	.	2	4a/)	.	.
8c/J	.	3	.	.	.
*ped	*	*	*	*	*
8c:/L	4F: 4GG:\	.	(12d/L	1	.
.	.	.	12e/	.	.
8B/J	.	1	.	.	.
.	.	.	12f/J	.	.
=34	=34	=34	=34	=34	=34
*	*	*	*^	*	*
*ped	*	*	*	*	*	*
!	!	!	!	!	!	!LO:DY:b=2
8rF	2.GG\	.	4g~/	8ryy	4	f
(8GL 8E/	.	1 2	.	8ryy	.	p
8E 8C/	.	2 3	4a/)	2ryy	.	.
*Xped	*	*	*	*	*	*
8A 8C#X/	.	1 4	.	.	.	.
8B-X 8F/	.	1 2	(12d/L	.	1	.
.	.	.	12e/	.	.	.
8BnJ 8D/)	.	1 3	.	.	.	.
.	.	.	12f/J	.	.	.
*v	*v	*	*	*	*	*
*	*	*v	*v	*	*
=35	=35	=35	=35	=35
*ped	*	*	*	*
!	!	!LO:TX:t=P:problem:łuczek nad palcowaniem	!	!
8GG 8CC/	.	[>2.g/)	45	.
(8f:L 8c: 8G:\	1 3 5	.	.	.
8e\	2	.	.	.
8c\J	3	.	.	.
8A\L	4	.	.	.
8G\J)	5	.	.	.
=36	=36	=36	=36	=36
*	*	*^	*	*
2.C 2.CC/	.	2.g/]	2.e 2.c 2.G\	.	.
*Xped	*	*	*	*	*
*	*	*v	*v	*	*
==	==	==	==	==
*-	*-	*-	*-	*-
!!!system-decoration: {(g1)}
!!!RDF**kern: i = editorial accidental
!!!RDF**kern: > = above
!!!RDF**kern: < = below
!!!RDF**kern: N = linked
!!!RDF**dynam: > = "dim.", fontstyle= "italic"
!!!ENC: Filip Voros
!!!EED: Katarzyna Serwa
!!!END: 2023-10-11
!!!EEV: 2023-10-24
